!!!OTL: 668. Das Schifflein.
!!!COM: F. G. Fincke
!!!ODT: 1848
!!!ARE: Europa, Mitteleuropa, Deutschland
!!!SCT: B0668
!!!TXL: @@DE
!!!YEM: Copyright 1995, estate of Helmut Schaffrath.
**kern	**text
*ICvox	*
*Ivox	*
*clefG2	*
*M6/8	*
*k[b-e-]	*
*B-:	*
!LO:TX:a:t=Wiegend.	!
{8f	Ein
=1	=1
4dd	Schifflein
8cc	.
4b-	ʒieh-
8cc	-et
=2	=2
(4dd	lei-
8cc)	.
4b-}	-ſe
{8dd	den
=3	=3
4ee-	Strom
8dd	hin
4cc	ſei-
8b-	-ne
=4	=4
(4a	Glei-
8b-)	.
4cc}	-ſe;
{8f	es
=5	=5
4f	ſchweigen,
8f	.
4f	die
8f	drin
=6	=6
4.dd	wan-
4cc}	-dern,
{8f	denn
=7	=7
4f	kei-
8f	-ner
4f	kennt
8f	den
=8	=8
4.dd	an-
4cc}	-dern,
{8f	denn
=9	=9
4b-	kei-
8a	-ner
4g	kennt
8ee-	den
=10	=10
(4.dd	an-
4.cc)	.
=11	=11
4.b-	-dern.
4r}	.
==	==
!!!AGN: Moral - Lied
!!!GTL: Didaktische Lieder: Betrachtungen, Vergleiche und Moralisationen
!!!ONB: ESAC (Essen Associative Code) Database: BOEHME
!!!AMT: compound duple
!!!AIN: vox
!!!EED: Helmut Schaffrath
!!!EEV: 1.0
!!Cantor F. G. Fincke. 1848.
!!@@COMMENT:"Gedicht von L. Uhland 1810. Ʒuerſt gedruckt in "Pantheon". Eine Ʒeitſchrift für Wiſſen-
!!ſchaft und Kunſt, von Büſching und Kannegießer. 3. Bd. 1. Heft. Leipʒig 1810. Melodie bier
!!von F. G. Fincke, Cantor in Plauen i. B. Ʒuerſt gedruckt bei Schanʒ und Parucker, Deutſches
!!Liederbuch" 1848 S. 256. Daher Erk. "Germania" S. 205. Die reiʒende Mufik von Fr. Schubert
!!ʒu dieſem Liede iſt ohne Clavierſatʒ nicht wiederʒugeben."
!!@@END:
!!!Text: L. Uhland
!!!URL-scan: https://archive.org/details/BoehmeVtLieder1895/page/n519/mode/2up
!!!ENC: Anna Maria Matuszewska
!!!EEV: 2024/16/07
*-	*-
